; generated by Slic3r 1.2.6 on 2015-04-20 at 13:43:08

; external perimeters extrusion width = 0.50mm
; perimeters extrusion width = 0.72mm
; infill extrusion width = 0.72mm
; solid infill extrusion width = 0.72mm
; top infill extrusion width = 0.72mm

M107
M104 S50 ; set temperature
G28 ; home all axes
G1 Z5 F5000 ; lift nozzle

M109 S50; wait for temperature to be reached
G21 ; set units to millimeters
G90 ; use absolute coordinates
M82 ; use absolute distances for extrusion
G92 E0
G1 Z0.350 F7800.000
G1 E-2.00000 F2400.00000
G92 E0
G1 X86.579 Y78.344 F7800.000
G1 E2.00000 F2400.00000
G1 X87.608 Y77.418 E2.04285 F1800.000
G1 X89.756 Y75.857 E2.12500
G1 X90.955 Y75.165 E2.16786
G1 X93.381 Y74.085 E2.25001
G1 X94.698 Y73.657 E2.29286
G1 X97.295 Y73.105 E2.37501
G1 X98.672 Y72.960 E2.41786
G1 X101.328 Y72.960 E2.50001
G1 X102.705 Y73.105 E2.54287
G1 X105.302 Y73.657 E2.62502 F1800.000
G1 X106.619 Y74.085 E2.66787
G1 X109.045 Y75.165 E2.75002
G1 X110.244 Y75.857 E2.79287
G1 X112.392 Y77.418 E2.87502
G1 X113.421 Y78.344 E2.91788
G1 X115.198 Y80.317 E3.00003
G1 X116.012 Y81.438 E3.04288
G1 X117.339 Y83.737 E3.12503
G1 X117.903 Y85.002 E3.16788
G1 X118.723 Y87.527 E3.25003
G1 X119.011 Y88.882 E3.29289
G1 X119.289 Y91.523 E3.37504
G1 X119.325 Y92.215 E3.39649
G1 X119.325 Y120.415 E4.26904
G1 X118.928 Y122.674 E4.34000
G1 X117.785 Y124.662 E4.41096
G1 X116.032 Y126.141 E4.48192
G1 X113.880 Y126.934 E4.55288
G1 X112.700 Y127.040 E4.58954
G1 X87.300 Y127.040 E5.37544
G1 X85.041 Y126.643 E5.44641
G1 X83.053 Y125.500 E5.51737
G1 X81.574 Y123.747 E5.58833
G1 X80.781 Y121.595 E5.65929
G1 X80.675 Y120.415 E5.69595
G1 X80.675 Y92.215 E6.56849
G1 X80.711 Y91.523 E6.58994
G1 X80.989 Y88.882 E6.67210
G1 X81.277 Y87.527 E6.71495
G1 X82.097 Y85.002 E6.79710
G1 X82.661 Y83.737 E6.83995
G1 X83.988 Y81.438 E6.92210
G1 X84.802 Y80.317 E6.96495
G1 X86.529 Y78.400 E7.04478
G1 E5.04478 F2400.00000
G92 E0
G1 X102.928 Y88.706 F7800.000
G1 E2.00000 F2400.00000
G1 X101.691 Y89.943 E2.05415 F1800.000
G1 X100.000 Y90.396 E2.10831
G1 X98.309 Y89.943 E2.16246
G1 X97.072 Y88.706 E2.21662
G1 X96.619 Y87.015 E2.27077
G1 X97.072 Y85.325 E2.32493
G1 X98.309 Y84.087 E2.37908
G1 X99.544 Y83.756 E2.41863
G1 X100.000 Y83.634 E2.43324 F1800.000
G1 X101.691 Y84.087 E2.48739
G1 X102.928 Y85.325 E2.54155
G1 X103.381 Y87.015 E2.59570
G1 X102.948 Y88.633 E2.64754
G1 X102.368 Y88.382 F7800.000
G1 X101.367 Y89.383 E2.69133 F1800.000
G1 X100.000 Y89.749 E2.73512
G1 X98.633 Y89.383 E2.77892
G1 X97.632 Y88.382 E2.82271
G1 X97.266 Y87.015 E2.86650
G1 X97.632 Y85.648 E2.91030
G1 X98.633 Y84.647 E2.95409
G1 X99.706 Y84.360 E2.98846
G1 X100.000 Y84.281 E2.99788 F1800.000
G1 X101.367 Y84.647 E3.04168
G1 X102.368 Y85.648 E3.08547
G1 X102.734 Y87.015 E3.12926
G1 X102.387 Y88.310 E3.17074
G1 X101.808 Y88.059 F7800.000
G1 X101.044 Y88.823 E3.20417 F1800.000
G1 X100.000 Y89.103 E3.23760
G1 X98.956 Y88.823 E3.27103
G1 X98.192 Y88.059 E3.30446
G1 X97.913 Y87.015 E3.33789
G1 X98.192 Y85.972 E3.37133
G1 X98.956 Y85.208 E3.40476
G1 X99.867 Y84.963 E3.43395
G1 X100.000 Y84.928 E3.43819 F1800.000
G1 X101.044 Y85.208 E3.47162
G1 X101.808 Y85.972 E3.50505
G1 X102.087 Y87.015 E3.53849
G1 X101.827 Y87.986 E3.56960
G1 X102.019 Y88.512 F7800.000
G1 X111.100 Y118.815 F7800.000
G1 X88.900 Y118.815 E4.25651 F1800.000
G1 X88.900 Y92.299 E5.07696
G1 X89.151 Y89.909 E5.15131
G1 X89.868 Y87.704 E5.22306
G1 X91.027 Y85.696 E5.29480
G1 X92.578 Y83.973 E5.36655
G1 X94.454 Y82.610 E5.43829
G1 X96.573 Y81.667 E5.51004
G1 X98.841 Y81.185 E5.58178
G1 X101.159 Y81.185 E5.65353
G1 X103.427 Y81.667 E5.72527
G1 X105.546 Y82.610 E5.79701
G1 X107.422 Y83.973 E5.86876
G1 X108.973 Y85.696 E5.94050
G1 X110.132 Y87.704 E6.01225
G1 X110.849 Y89.909 E6.08399
G1 X111.100 Y92.299 E6.15835
G1 X111.100 Y118.740 E6.97648
G1 X111.725 Y119.440 F7800.000
G1 X88.275 Y119.440 E7.70206 F1800.000
G1 X88.275 Y92.266 E8.54286
G1 X88.536 Y89.779 E8.62026
G1 X89.294 Y87.448 E8.69607
G1 X90.519 Y85.327 E8.77188
G1 X92.158 Y83.506 E8.84768
G1 X94.140 Y82.066 E8.92349
G1 X96.378 Y81.069 E8.99930
G1 X98.775 Y80.560 E9.07511
G1 X101.225 Y80.560 E9.15092
G1 X103.622 Y81.069 E9.22673
G1 X105.860 Y82.066 E9.30254
G1 X107.842 Y83.506 E9.37835
G1 X109.481 Y85.327 E9.45416
G1 X110.706 Y87.448 E9.52997
G1 X111.464 Y89.779 E9.60578
G1 X111.725 Y92.266 E9.68317
G1 X111.725 Y119.365 E10.52165
G1 X112.350 Y120.065 F7800.000
G1 X87.650 Y120.065 E11.28590 F1800.000
G1 X87.650 Y92.234 E12.14705
G1 X87.922 Y89.648 E12.22750
G1 X88.719 Y87.193 E12.30737
G1 X90.010 Y84.957 E12.38724
G1 X91.738 Y83.039 E12.46712
G1 X93.826 Y81.521 E12.54699
G1 X96.184 Y80.471 E12.62686
G1 X98.709 Y79.935 E12.70674
G1 X101.291 Y79.935 E12.78661
G1 X103.816 Y80.471 E12.86648
G1 X106.174 Y81.521 E12.94636
G1 X108.262 Y83.039 E13.02623
G1 X109.990 Y84.957 E13.10610
G1 X111.280 Y87.193 E13.18598
G1 X112.078 Y89.648 E13.26585
G1 X112.350 Y92.234 E13.34630
G1 X112.350 Y119.990 E14.20512
G1 X111.917 Y119.815 F7800.000
G1 X110.733 Y104.032 F7800.000
G1 X91.897 Y85.196 E15.03464 F1800.000
G1 X91.476 Y85.664 E15.05425
G1 X110.733 Y104.921 E15.90232
G1 X110.733 Y105.811 E15.93002
G1 X91.111 Y86.188 E16.79418
G1 X90.785 Y86.752 E16.81445
G1 X110.733 Y106.700 E17.69295
G1 X110.733 Y107.590 E17.72065
G1 X90.459 Y87.316 E18.61349
G1 X90.154 Y87.900 E18.63401
G1 X110.733 Y108.479 E19.54030
G1 X110.733 Y109.368 E19.56800
G1 X89.936 Y88.571 E20.48391
G1 X89.718 Y89.242 E20.50589
G1 X110.733 Y110.258 E21.43140
G1 X110.733 Y111.147 E21.45910
G1 X89.506 Y89.920 E22.39393
G1 X89.421 Y90.725 E22.41913
G1 X110.733 Y112.037 E23.35769
G1 X110.733 Y112.926 E23.38538
G1 X89.337 Y91.530 E24.32767
G1 X89.267 Y92.350 E24.35329
G1 X110.733 Y113.816 E25.29864
G1 X110.733 Y114.705 E25.32633
G1 X89.267 Y93.239 E26.27168
G1 X89.267 Y94.129 E26.29938
G1 X110.733 Y115.594 E27.24473
G1 X110.733 Y116.484 E27.27243
G1 X89.267 Y95.018 E28.21778
G1 X89.267 Y95.907 E28.24547
G1 X110.733 Y117.373 E29.19082
G1 X110.733 Y118.263 E29.21852
G1 X89.267 Y96.797 E30.16387
G1 X89.267 Y97.686 E30.19157
G1 X110.029 Y118.448 E31.10591
G1 X109.140 Y118.448 E31.13361
G1 X89.267 Y98.576 E32.00879
G1 X89.267 Y99.465 E32.03648
G1 X108.250 Y118.448 E32.87249
G1 X107.361 Y118.448 E32.90019
G1 X89.267 Y100.355 E33.69702
G1 X89.267 Y101.244 E33.72472
G1 X106.471 Y118.448 E34.48239
G1 X105.582 Y118.448 E34.51009
G1 X89.267 Y102.133 E35.22858
G1 X89.267 Y103.023 E35.25628
G1 X104.692 Y118.448 E35.93561
G1 X103.803 Y118.448 E35.96330
G1 X89.267 Y103.912 E36.60346
G1 X89.267 Y104.802 E36.63116
G1 X102.914 Y118.448 E37.23214
G1 X102.024 Y118.448 E37.25984
G1 X89.267 Y105.691 E37.82166
G1 X89.267 Y106.581 E37.84935
G1 X101.135 Y118.448 E38.37200
G1 X100.245 Y118.448 E38.39970
G1 X89.267 Y107.470 E38.88317
G1 X89.267 Y108.359 E38.91087
G1 X99.356 Y118.448 E39.35518
G1 X98.466 Y118.448 E39.38288
G1 X89.267 Y109.249 E39.78801
G1 X89.267 Y110.138 E39.81571
G1 X97.577 Y118.448 E40.18168
G1 X96.688 Y118.448 E40.20937
G1 X89.267 Y111.028 E40.53617
G1 X89.267 Y111.917 E40.56387
G1 X95.798 Y118.448 E40.85149
G1 X94.909 Y118.448 E40.87919
G1 X89.267 Y112.806 E41.12765
G1 X89.267 Y113.696 E41.15534
G1 X94.019 Y118.448 E41.36463
G1 X93.130 Y118.448 E41.39233
G1 X89.267 Y114.585 E41.56244
G1 X89.267 Y115.475 E41.59014
G1 X92.240 Y118.448 E41.72109
G1 X91.351 Y118.448 E41.74878
G1 X89.267 Y116.364 E41.84056
G1 X89.267 Y117.254 E41.86826
G1 X90.462 Y118.448 E41.92086
G1 X89.572 Y118.448 E41.94856
G1 X89.267 Y118.143 E41.96200
G1 X110.733 Y92.469 F7800.000
G1 X103.261 Y84.997 E42.29106 F1800.000
G1 X103.587 Y86.212 E42.33023
G1 X110.733 Y93.359 E42.64495
G1 X110.733 Y94.248 E42.67265
G1 X103.682 Y87.197 E42.98317
G1 X103.494 Y87.899 E43.00579
G1 X110.733 Y95.138 E43.32459
G1 X110.733 Y96.027 E43.35229
G1 X103.306 Y88.600 E43.67937
G1 X102.946 Y89.130 E43.69931
G1 X110.733 Y96.916 E44.04224
G1 X110.733 Y97.806 E44.06993
G1 X102.501 Y89.574 E44.43245
G1 X102.057 Y90.019 E44.45203
G1 X110.733 Y98.695 E44.83413
G1 X110.733 Y99.585 E44.86183
G1 X101.494 Y90.346 E45.26872
G1 X100.792 Y90.534 E45.29133
G1 X110.733 Y100.474 E45.72912
G1 X110.733 Y101.364 E45.75681
G1 X100.091 Y90.722 E46.22549
G1 X99.039 Y90.559 E46.25862
G1 X110.733 Y102.253 E46.77360
G1 X110.733 Y103.142 E46.80130
G1 X92.319 Y84.728 E47.61225
G1 X92.752 Y84.272 E47.63184
G1 X96.456 Y87.976 E47.79495
G1 X96.294 Y86.924 E47.82808
G1 X93.246 Y83.877 E47.96230
G1 X93.761 Y83.502 E47.98213
G1 X96.482 Y86.223 E48.10194
G1 X96.670 Y85.521 E48.12456
G1 X94.276 Y83.128 E48.22996
G1 X94.834 Y82.796 E48.25017
G1 X96.996 Y84.959 E48.34539
G1 X97.441 Y84.514 E48.36497
G1 X95.449 Y82.522 E48.45268
G1 X96.065 Y82.248 E48.47365
G1 X97.886 Y84.069 E48.55384
G1 X98.415 Y83.709 E48.57378
G1 X96.696 Y81.991 E48.64947
G1 X97.430 Y81.835 E48.67282
G1 X99.117 Y83.521 E48.74710
G1 X99.818 Y83.333 E48.76971
G1 X98.163 Y81.679 E48.84258
G1 X98.926 Y81.552 E48.86665
G1 X100.803 Y83.429 E48.94930
G1 X102.018 Y83.754 E48.98847
G1 X99.815 Y81.552 E49.08546
G1 X100.705 Y81.552 E49.11316
G1 X110.630 Y91.477 E49.55025
G1 X110.525 Y90.483 E49.58137
G1 X101.762 Y81.719 E49.96732
G1 X102.891 Y81.959 E50.00328
G1 X110.207 Y89.275 E50.32547
G1 X109.729 Y87.908 F7800.000
G1 X104.390 Y82.569 E50.56059 F1800.000
G1 X106.849 Y84.138 F7800.000
G1 X107.475 Y84.764 E50.58814 F1800.000
G1 Z0.650 F7800.000
G1 X101.613 Y89.809 F7800.000
G1 X100.000 Y90.241 E50.63453 F900.000
G1 X98.387 Y89.809 E50.68091
G1 X97.206 Y88.628 E50.72729
G1 X96.774 Y87.015 E50.77367
G1 X97.206 Y85.402 E50.82005
G1 X98.387 Y84.222 E50.86643
G1 X99.505 Y83.922 E50.89858
G1 X100.000 Y83.790 E50.91282 F900.000
G1 X101.613 Y84.222 E50.95920
G1 X102.794 Y85.402 E51.00558
G1 X103.226 Y87.015 E51.05196
G1 X102.794 Y88.628 E51.09834
G1 X101.666 Y89.756 E51.14264
G1 X101.274 Y89.222 F7800.000
G1 X100.000 Y89.563 E51.17928 F900.000
G1 X98.726 Y89.222 E51.21592
G1 X97.793 Y88.289 E51.25256
G1 X97.452 Y87.015 E51.28920
G1 X97.793 Y85.741 E51.32583
G1 X98.726 Y84.808 E51.36247
G1 X99.674 Y84.554 E51.38975
G1 X100.000 Y84.467 E51.39911 F900.000
G1 X101.274 Y84.808 E51.43575
G1 X102.207 Y85.741 E51.47239
G1 X102.548 Y87.015 E51.50903
G1 X102.207 Y88.289 E51.54567
G1 X101.327 Y89.169 E51.58022
G1 X100.992 Y88.733 F7800.000
G1 X100.000 Y88.999 E51.59921 F900.000
G1 X99.008 Y88.733 E51.61819
G1 X98.282 Y88.007 E51.63718
G1 X98.016 Y87.015 E51.65616
G1 X98.282 Y86.023 E51.67515
G1 X99.008 Y85.297 E51.69414
G1 X99.816 Y85.081 E51.70959
G1 X100.000 Y85.031 E51.71312 F900.000
G1 X100.992 Y85.297 E51.73211
G1 X101.718 Y86.023 E51.75109
G1 X101.984 Y87.015 E51.77008
G1 X101.718 Y88.007 E51.78906
G1 X101.045 Y88.680 E51.80666
G1 X100.948 Y89.231 F7800.000
G1 X111.250 Y118.966 F7800.000
G1 X88.750 Y118.966 E52.43169 F3600.000
G1 X88.750 Y92.291 E53.17264
G1 X89.003 Y89.878 E53.24005
G1 X89.730 Y87.642 E53.30534
G1 X90.905 Y85.607 E53.37063
G1 X92.477 Y83.860 E53.43591
G1 X94.379 Y82.479 E53.50120
G1 X96.526 Y81.523 E53.56649
G1 X98.825 Y81.034 E53.63177
G1 X101.175 Y81.034 E53.69706
G1 X103.474 Y81.523 E53.76234
G1 X105.621 Y82.479 E53.82763
G1 X107.523 Y83.860 E53.89292
G1 X109.095 Y85.607 E53.95820
G1 X110.270 Y87.643 E54.02349
G1 X110.997 Y89.878 E54.08878
G1 X111.250 Y92.291 E54.15619
G1 X111.250 Y118.891 E54.89506
G1 X111.905 Y119.620 F7800.000
G1 X88.095 Y119.620 E55.55645 F3600.000
G1 X88.095 Y92.257 E56.31654
G1 X88.359 Y89.741 E56.38681
G1 X89.128 Y87.375 E56.45592
G1 X90.372 Y85.220 E56.52503
G1 X92.037 Y83.371 E56.59413
G1 X94.050 Y81.909 E56.66324
G1 X96.323 Y80.897 E56.73235
G1 X98.756 Y80.380 E56.80146
G1 X101.244 Y80.380 E56.87057
G1 X103.677 Y80.897 E56.93967
G1 X105.950 Y81.909 E57.00878
G1 X107.963 Y83.371 E57.07789
G1 X109.628 Y85.220 E57.14700
G1 X110.872 Y87.375 E57.21611
G1 X111.641 Y89.741 E57.28522
G1 X111.905 Y92.257 E57.35549
G1 X111.905 Y119.545 E58.11349
G1 X112.450 Y120.165 F7800.000
G1 X87.550 Y120.165 E58.57385 F1800.000
G1 X87.550 Y92.228 E59.09036
G1 X87.823 Y89.627 E59.13872
G1 X88.628 Y87.152 E59.18683
G1 X89.929 Y84.898 E59.23495
G1 X91.670 Y82.964 E59.28306
G1 X93.776 Y81.434 E59.33118
G1 X96.153 Y80.376 E59.37929
G1 X98.699 Y79.835 E59.42741
G1 X101.301 Y79.835 E59.47552
G1 X103.847 Y80.376 E59.52364
G1 X106.224 Y81.434 E59.57175
G1 X108.330 Y82.964 E59.61987
G1 X110.071 Y84.898 E59.66798
G1 X111.372 Y87.152 E59.71610
G1 X112.177 Y89.627 E59.76421
G1 X112.450 Y92.228 E59.81257
G1 X112.450 Y120.090 E60.32769
G1 X112.017 Y119.915 F7800.000
G1 X110.545 Y118.578 F7800.000
G1 X110.863 Y118.260 E60.34021 F1200.000
G1 X110.863 Y117.331 E60.36610
G1 X109.616 Y118.578 E60.41523
G1 X108.687 Y118.578 E60.44111
G1 X110.863 Y116.403 E60.52685
G1 X110.863 Y115.474 E60.55273
G1 X107.759 Y118.578 E60.67508
G1 X106.830 Y118.578 E60.70096
G1 X110.863 Y114.545 E60.85991
G1 X110.863 Y113.617 E60.88580
G1 X105.901 Y118.578 E61.08136
G1 X104.973 Y118.578 E61.10724
G1 X110.863 Y112.688 E61.33941
G1 X110.863 Y111.759 E61.36529
G1 X104.044 Y118.578 E61.63406
G1 X103.115 Y118.578 E61.65995
G1 X110.863 Y110.830 E61.96533
G1 X110.863 Y109.902 E61.99121
G1 X102.186 Y118.578 E62.33320
G1 X101.258 Y118.578 E62.35909
G1 X110.863 Y108.973 E62.73768
G1 X110.863 Y108.044 E62.76357
G1 X100.329 Y118.578 E63.17877
G1 X99.400 Y118.578 E63.20465
G1 X110.863 Y107.115 E63.65646
G1 X110.863 Y106.187 E63.68235
G1 X98.471 Y118.578 E64.17076
G1 X97.543 Y118.578 E64.19665
G1 X110.863 Y105.258 E64.72167
G1 X110.863 Y104.329 E64.74756
G1 X96.614 Y118.578 E65.30919
G1 X95.685 Y118.578 E65.33507
G1 X110.863 Y103.401 E65.93331
G1 X110.863 Y102.472 E65.95919
G1 X94.757 Y118.578 E66.59404
G1 X93.828 Y118.578 E66.61992
G1 X110.863 Y101.543 E67.29138
G1 X110.863 Y100.614 E67.31726
G1 X92.899 Y118.578 E68.02532
G1 X91.970 Y118.578 E68.05121
G1 X110.863 Y99.686 E68.79587
G1 X110.863 Y98.757 E68.82176
G1 X91.042 Y118.578 E69.60303
G1 X90.113 Y118.578 E69.62892
G1 X110.863 Y97.828 E70.44680
G1 X110.863 Y96.899 E70.47268
G1 X89.184 Y118.578 E71.32717
G1 X89.137 Y117.696 E71.35178
G1 X110.863 Y95.971 E72.20812
G1 X110.863 Y95.042 E72.23400
G1 X89.137 Y116.767 E73.09034
G1 X89.137 Y115.838 E73.11622
G1 X110.863 Y94.113 E73.97256
G1 X110.863 Y93.184 E73.99844
G1 X89.137 Y114.910 E74.85478
G1 X89.137 Y113.981 E74.88066
G1 X110.863 Y92.256 E75.73699
G1 X110.782 Y91.408 E75.76073
G1 X89.137 Y113.052 E76.61386
G1 X89.137 Y112.124 E76.63975
G1 X110.693 Y90.568 E77.48940
G1 X110.585 Y89.748 E77.51246
G1 X89.137 Y111.195 E78.35784
G1 X89.137 Y110.266 E78.38373
G1 X110.357 Y89.047 E79.22013
G1 X110.129 Y88.346 E79.24067
G1 X89.137 Y109.337 E80.06809
G1 X89.137 Y108.409 E80.09398
G1 X109.889 Y87.657 E80.91195
G1 X109.550 Y87.068 E80.93090
G1 X89.137 Y107.480 E81.73548
G1 X89.137 Y106.551 E81.76136
G1 X109.210 Y86.479 E82.55254
G1 X108.870 Y85.890 E82.57149
G1 X89.137 Y105.622 E83.34927
G1 X89.137 Y104.694 E83.37515
G1 X108.448 Y85.383 E84.13633
G1 X108.008 Y84.894 E84.15466
G1 X89.137 Y103.765 E84.89849
G1 X89.137 Y102.836 E84.92437
G1 X101.761 Y90.213 E85.42195
G1 X100.492 Y90.553 E85.45856
G1 X89.137 Y101.908 E85.90613
G1 X89.137 Y100.979 E85.93202
G1 X99.610 Y90.506 E86.34483
G1 X98.878 Y90.309 E86.36597
G1 X89.137 Y100.050 E86.74991
G1 X89.137 Y99.121 E86.77580
G1 X98.185 Y90.074 E87.13242
G1 X97.721 Y89.609 E87.15073
G1 X89.137 Y98.193 E87.48905
G1 X89.137 Y97.264 E87.51494
G1 X97.256 Y89.145 E87.83495
G1 X96.839 Y88.634 E87.85335
G1 X89.137 Y96.335 E88.15692
G1 X89.137 Y95.406 E88.18280
G1 X96.643 Y87.901 E88.47863
G1 X96.446 Y87.169 E88.49976
G1 X89.137 Y94.478 E88.78786
G1 X89.137 Y93.549 E88.81374
G1 X96.572 Y86.114 E89.10679
G1 X99.099 Y83.587 F7800.000
G1 X101.263 Y81.423 E89.19210 F1200.000
G1 X102.029 Y81.586 E89.21392
G1 X100.154 Y83.461 E89.28785
G1 X100.886 Y83.658 E89.30899
G1 X102.795 Y81.749 E89.38424
G1 X103.543 Y81.930 E89.40568
G1 X101.619 Y83.854 E89.48154
G1 X102.130 Y84.272 E89.49994
G1 X104.186 Y82.216 E89.58097
G1 X104.828 Y82.502 E89.60058
G1 X102.594 Y84.736 E89.68864
G1 X103.059 Y85.200 E89.70694
G1 X105.471 Y82.788 E89.80203
G1 X106.013 Y83.175 E89.82059
G1 X103.294 Y85.893 E89.92774
G1 X103.490 Y86.626 E89.94888
G1 X106.551 Y83.566 E90.06950
G1 X107.089 Y83.956 E90.08803
